static/images/icons/gradients/verified.svg

<svg width="40" height="40" viewBox="0 0 40 40" fill="none" xmlns="http://www.w3.org/2000/svg">
<path d="M16.6112 6.45451C18.1078 4.63597 20.8922 4.63597 22.3888 6.45451C23.4345 7.7251 25.044 8.3918 26.6819 8.23274C29.026 8.00508 30.9949 9.974 30.7673 12.3181C30.6082 13.956 31.2749 15.5655 32.5455 16.6112C34.364 18.1078 34.364 20.8922 32.5455 22.3888C31.2749 23.4345 30.6082 25.044 30.7673 26.6819C30.9949 29.026 29.026 30.9949 26.6819 30.7673C25.044 30.6082 23.4345 31.2749 22.3888 32.5455C20.8922 34.364 18.1078 34.364 16.6112 32.5455C15.5655 31.2749 13.956 30.6082 12.3181 30.7673C9.974 30.9949 8.00508 29.026 8.23274 26.6819C8.3918 25.044 7.7251 23.4345 6.45451 22.3888C4.63597 20.8922 4.63597 18.1078 6.45451 16.6112C7.7251 15.5655 8.3918 13.956 8.23274 12.3181C8.00508 9.974 9.974 8.00508 12.3181 8.23274C13.956 8.3918 15.5655 7.7251 16.6112 6.45451Z" fill="url(#paint0_linear_1025_2519)" stroke="#FD366E" stroke-width="1.2"/>
<path d="M15 20L18 23L24 17" stroke="#FD366E" stroke-width="1.2" stroke-linecap="round" stroke-linejoin="round"/>
<defs>
<linearGradient id="paint0_linear_1025_2519" x1="19.5" y1="2" x2="19.5" y2="37" gradientUnits="userSpaceOnUse">
<stop stop-color="#FD366E" stop-opacity="0"/>
<stop offset="1" stop-color="#FD366E" stop-opacity="0.4"/>
</linearGradient>
</defs>
</svg>

<svg xmlns="http://www.w3.org/2000/svg" width="40" height="40" fill="none"><path fill="url(#a)" stroke="#FD366E" stroke-width="1.2" d="M16.611 6.455a3.741 3.741 0 0 1 5.778 0 4.941 4.941 0 0 0 4.293 1.778 3.741 3.741 0 0 1 4.085 4.085 4.941 4.941 0 0 0 1.778 4.293 3.741 3.741 0 0 1 0 5.778 4.941 4.941 0 0 0-1.778 4.293 3.741 3.741 0 0 1-4.085 4.085 4.941 4.941 0 0 0-4.293 1.778 3.741 3.741 0 0 1-5.778 0 4.941 4.941 0 0 0-4.293-1.778 3.741 3.741 0 0 1-4.085-4.085 4.941 4.941 0 0 0-1.778-4.293 3.741 3.741 0 0 1 0-5.778 4.941 4.941 0 0 0 1.778-4.293 3.741 3.741 0 0 1 4.085-4.085 4.941 4.941 0 0 0 4.293-1.778Z"/><path stroke="#FD366E" stroke-linecap="round" stroke-linejoin="round" stroke-width="1.2" d="m15 20 3 3 6-6"/><defs><linearGradient id="a" x1="19.5" x2="19.5" y1="2" y2="37" gradientUnits="userSpaceOnUse"><stop stop-color="#FD366E" stop-opacity="0"/><stop offset="1" stop-color="#FD366E" stop-opacity=".4"/></linearGradient></defs></svg>
